X: 1
T: Silver Bells   [D]
C: Jay Livingston, Ray Evans (1950)
R: waltz
Z: 2018 John Chambers <jc:trillian.mit.edu>
M: 3/4
L: 1/8
K: D
dB |\
"D"A2 F2 dB | A2 F2 fe | "G"d2 B2 B2 | "Em"B4 ed | "A"c2 A2 _A2 |\
[1 "A7"G2 A3 G | "D"G2 F4- | F4 :|[2 "A7"G2 A2 e2 | "D"d6- | d6 |]
|:\
"D"FG A4- | A6 | "G"Bc d4- | "Em"d6 | "A"c2 c2 d2 |\
[1 e4 dc | "D"d2 A4- | A4 :|[2 e2 d2 c2 | "D"d6- | d6 |]
